public/images/hashed/f1a8369dc08cf432fdb9a6bd8c80d964.svg

<?xml version="1.0" encoding="UTF-8"?>
<svg width="80px" height="80px" viewBox="0 0 80 80" version="1.1" xmlns="http://www.w3.org/2000/svg" xmlns:xlink="http://www.w3.org/1999/xlink">
    <!-- Generator: Sketch 64 (93537) - https://sketch.com -->
    <title>Icon-Architecture/64/Arch_Amazon-Neuron-ML-SDK_64</title>
    <desc>Created with Sketch.</desc>
    <defs>
        <linearGradient x1="0%" y1="100%" x2="100%" y2="0%" id="linearGradient-1">
            <stop stop-color="#055F4E" offset="0%"></stop>
            <stop stop-color="#56C0A7" offset="100%"></stop>
        </linearGradient>
    </defs>
    <g id="Icon-Architecture/64/Arch_Amazon-Neuron-ML-SDK_64" stroke="none" stroke-width="1" fill="none" fill-rule="evenodd">
        <g id="Icon-Architecture-BG/64/Machine-Learning" fill="url(#linearGradient-1)">
            <rect id="Rectangle" x="0" y="0" width="80" height="80"></rect>
        </g>
        <path d="M62,53.4169349 L40,65.8519904 L18,53.4169349 L18,26.5838151 L40,14.1487596 L62,26.5838151 L62,53.4169349 Z M63.492,25.1298086 L40.492,12.1297506 C40.188,11.9567498 39.813,11.9567498 39.508,12.1297506 L16.508,25.1298086 C16.194,25.3068094 16,25.6398109 16,25.9998125 L16,53.9999375 C16,54.3609391 16.194,54.6939406 16.508,54.8709414 L39.508,67.8709994 C39.66,67.9579998 39.83,68 40,68 C40.17,68 40.34,67.9579998 40.492,67.8709994 L63.492,54.8709414 C63.806,54.6939406 64,54.3609391 64,53.9999375 L64,25.9998125 C64,25.6398109 63.806,25.3068094 63.492,25.1298086 L63.492,25.1298086 Z M42,24.9997991 C42,26.103813 41.103,26.999817 40,26.999817 C38.897,26.999817 38,26.103813 38,24.9997991 C38,23.8968031 38.897,22.9997991 40,22.9997991 C41.103,22.9997991 42,23.8968031 42,24.9997991 L42,24.9997991 Z M55,35.9998482 C55,37.1038621 54.103,37.9998661 53,37.9998661 C51.897,37.9998661 51,37.1038621 51,35.9998482 C51,34.8968522 51.897,33.9998482 53,33.9998482 C54.103,33.9998482 55,34.8968522 55,35.9998482 L55,35.9998482 Z M48,53.9999375 C46.897,53.9999375 46,53.1039335 46,51.9999196 C46,50.8969236 46.897,49.9999196 48,49.9999196 C49.103,49.9999196 50,50.8969236 50,51.9999196 C50,53.1039335 49.103,53.9999375 48,53.9999375 L48,53.9999375 Z M44.288,44.2838941 L46.48,48.3039121 C46.063,48.4759128 45.691,48.724914 45.358,49.0199153 L41.666,46.2499029 L44.288,44.2838941 Z M34.642,49.0199153 C34.309,48.724914 33.937,48.4759128 33.52,48.3039121 L35.712,44.2838941 L38.334,46.2499029 L34.642,49.0199153 Z M32,53.9999375 C30.897,53.9999375 30,53.1039335 30,51.9999196 C30,50.8969236 30.897,49.9999196 32,49.9999196 C33.103,49.9999196 34,50.8969236 34,51.9999196 C34,53.1039335 33.103,53.9999375 32,53.9999375 L32,53.9999375 Z M25,35.9998482 C25,34.8968522 25.897,33.9998482 27,33.9998482 C28.103,33.9998482 29,34.8968522 29,35.9998482 C29,37.1038621 28.103,37.9998661 27,37.9998661 C25.897,37.9998661 25,37.1038621 25,35.9998482 L25,35.9998482 Z M31.371,48.063911 C31.093,48.1079112 30.823,48.1779115 30.566,48.276912 L28.25,39.780874 C28.568,39.6748735 28.873,39.540873 29.15,39.3628722 L34.095,43.0708887 L31.371,48.063911 Z M39,32.1428399 C37.279,32.5898419 36,34.1418488 36,35.9998571 C36,36.8438609 36.266,37.6248644 36.713,38.2708673 L35.063,41.2978808 L30.508,37.8818655 C30.812,37.317863 31,36.6838602 31,35.9998571 C31,35.3098541 30.809,34.6688512 30.499,34.1018487 L37.866,28.3718231 C38.212,28.5908241 38.594,28.7528248 39,28.8578253 L39,32.1428399 Z M38.271,39.5918732 C38.797,39.8458743 39.378,39.999875 40,39.999875 C40.622,39.999875 41.203,39.8458743 41.729,39.5918732 L43.32,42.5098862 L40,45.0008973 L36.68,42.5098862 L38.271,39.5918732 Z M40,33.9998482 C41.103,33.9998482 42,34.8968522 42,35.9998482 C42,37.1038621 41.103,37.9998661 40,37.9998661 C38.897,37.9998661 38,37.1038621 38,35.9998482 C38,34.8968522 38.897,33.9998482 40,33.9998482 L40,33.9998482 Z M48.629,48.063911 L45.905,43.0708887 L50.85,39.3628722 C51.127,39.540873 51.432,39.6748735 51.75,39.780874 L49.434,48.276912 C49.177,48.1779115 48.907,48.1079112 48.629,48.063911 L48.629,48.063911 Z M42.134,28.3718231 L49.501,34.1018487 C49.191,34.6688512 49,35.3098541 49,35.9998571 C49,36.6838602 49.188,37.317863 49.492,37.8818655 L44.938,41.2978808 L43.287,38.2708673 C43.734,37.6248644 44,36.8438609 44,35.9998571 C44,34.1418488 42.721,32.5898419 41,32.1428399 L41,28.8578253 C41.406,28.7528248 41.788,28.5908241 42.134,28.3718231 L42.134,28.3718231 Z M36,24.999808 C36,25.6908111 36.191,26.331814 36.501,26.8988165 L29.134,32.6288421 C28.515,32.2358403 27.786,31.9998393 27,31.9998393 C24.794,31.9998393 23,33.7948473 23,35.9998571 C23,37.9368658 24.384,39.554873 26.215,39.9208746 L28.846,49.5689177 C28.323,50.2459207 28,51.0819245 28,51.9999286 C28,54.2059384 29.794,55.9999464 32,55.9999464 C34.206,55.9999464 36,54.2059384 36,51.9999286 C36,51.5359265 35.905,51.0959245 35.759,50.6809227 L40,47.4999085 L44.241,50.6809227 C44.095,51.0959245 44,51.5359265 44,51.9999286 C44,54.2059384 45.794,55.9999464 48,55.9999464 C50.206,55.9999464 52,54.2059384 52,51.9999286 C52,51.0819245 51.677,50.2459207 51.154,49.5689177 L53.785,39.9208746 C55.616,39.554873 57,37.9368658 57,35.9998571 C57,33.7948473 55.206,31.9998393 53,31.9998393 C52.214,31.9998393 51.485,32.2358403 50.866,32.6288421 L43.499,26.8988165 C43.809,26.331814 44,25.6908111 44,24.999808 C44,22.7947982 42.206,20.9997902 40,20.9997902 C37.794,20.9997902 36,22.7947982 36,24.999808 L36,24.999808 Z" id="Amazon-Neuron-ML-SDK_Icon_64_Squid" fill="#FFFFFF"></path>
    </g>
</svg>

<svg xmlns="http://www.w3.org/2000/svg" width="80" height="80"><defs><linearGradient id="a" x1="0%" x2="100%" y1="100%" y2="0%"><stop offset="0%" stop-color="#055F4E"/><stop offset="100%" stop-color="#56C0A7"/></linearGradient></defs><g fill="none" fill-rule="evenodd"><path fill="url(#a)" d="M0 0h80v80H0z"/><path fill="#FFF" d="M62 53.417 40 65.852 18 53.417V26.584l22-12.435 22 12.435v26.833Zm1.492-28.287-23-13a.998.998 0 0 0-.984 0l-23 13A.999.999 0 0 0 16 26v28a1 1 0 0 0 .508.87l23 13.001A.989.989 0 0 0 40 68c.17 0 .34-.042.492-.129l23-13A1 1 0 0 0 64 54V26a.999.999 0 0 0-.508-.87ZM42 25c0 1.104-.897 2-2 2s-2-.896-2-2c0-1.103.897-2 2-2s2 .897 2 2Zm13 11c0 1.104-.897 2-2 2s-2-.896-2-2c0-1.103.897-2 2-2s2 .897 2 2Zm-7 18c-1.103 0-2-.896-2-2 0-1.103.897-2 2-2s2 .897 2 2c0 1.104-.897 2-2 2Zm-3.712-9.716 2.192 4.02a3.994 3.994 0 0 0-1.122.716l-3.692-2.77 2.622-1.966Zm-9.646 4.736a3.994 3.994 0 0 0-1.122-.716l2.192-4.02 2.622 1.966-3.692 2.77ZM32 54c-1.103 0-2-.896-2-2 0-1.103.897-2 2-2s2 .897 2 2c0 1.104-.897 2-2 2Zm-7-18c0-1.103.897-2 2-2s2 .897 2 2c0 1.104-.897 2-2 2s-2-.896-2-2Zm6.371 12.064a3.959 3.959 0 0 0-.805.213L28.25 39.78a3.99 3.99 0 0 0 .9-.418l4.945 3.708-2.724 4.993ZM39 32.143c-1.721.447-3 1.999-3 3.857 0 .844.266 1.625.713 2.27l-1.65 3.028-4.555-3.416A3.947 3.947 0 0 0 31 36a3.94 3.94 0 0 0-.501-1.898l7.367-5.73c.346.219.728.38 1.134.486v3.285Zm-.729 7.449A3.957 3.957 0 0 0 40 40c.622 0 1.203-.154 1.729-.408l1.591 2.918L40 45l-3.32-2.49 1.591-2.918ZM40 34c1.103 0 2 .897 2 2 0 1.104-.897 2-2 2s-2-.896-2-2c0-1.103.897-2 2-2Zm8.629 14.064-2.724-4.993 4.945-3.708c.277.178.582.312.9.418l-2.316 8.496a3.959 3.959 0 0 0-.805-.213Zm-6.495-19.692 7.367 5.73A3.94 3.94 0 0 0 49 36c0 .684.188 1.318.492 1.882l-4.554 3.416-1.651-3.027A3.978 3.978 0 0 0 44 36c0-1.858-1.279-3.41-3-3.857v-3.285a3.975 3.975 0 0 0 1.134-.486ZM36 25c0 .69.191 1.332.501 1.899l-7.367 5.73a3.968 3.968 0 0 0-2.134-.63c-2.206 0-4 1.796-4 4a4.005 4.005 0 0 0 3.215 3.922l2.631 9.648a3.96 3.96 0 0 0-.846 2.43c0 2.207 1.794 4 4 4s4-1.793 4-4a3.96 3.96 0 0 0-.241-1.318L40 47.5l4.241 3.18A3.96 3.96 0 0 0 44 52c0 2.206 1.794 4 4 4s4-1.794 4-4a3.96 3.96 0 0 0-.846-2.431l2.631-9.648A4.005 4.005 0 0 0 57 36c0-2.205-1.794-4-4-4-.786 0-1.515.236-2.134.629l-7.367-5.73c.31-.567.501-1.208.501-1.9 0-2.204-1.794-4-4-4s-4 1.796-4 4Z"/></g></svg>
